X:1
T:Valse à Casimir Blancher
M:3/4
R:
K:C
G2||c6|e2d2c2|G6|-G6|G2c2e2|g4a2|g4^f2|g6|-g4G2|
c6|e2d2c2|G6|-G6|g2g2a2|g4f2|e6|-e6|
e2e2e2|d4e2|g6|-g2A2B2|c2A2B2|c4A2|G6|
e2e2e2|d4e2|g6|e2e2e2|d4e2|g6|
G2c2d2|f4e2|c4B2|c6|G2c2e2|g4a2|g4^f2|g6|
G2|c6|G2c2e2|g4a2|g4^f2|g6|g2g2e2|c4e2|e6|d6|
e2f2e2|c2B2A2|G6|g2a2g2|A4B2|c6|
g2^f2g2|a4e2|g6|f6|f2e2f2|a4d2|f6|e6|
d2e2d2|c2B2A2|G6|g2a2g2|A4B2|c6|-c4G2||

